X:1
T: Tail Toddle
C:William Nisbet
R:Strathspey
Q: 128
K:A
M:4/4
L:1/16
edcB|:A3A c3A d4 B3G|A3A c3A e4 c3A|e4 c3A d4 B3G|A3A c3A d3B e4:|
|:A3A c3e =g4 B2=G2|A3A c3e a3b a2f2|=g3a g3e d3g B3=G|A3A c3A d2B2 e4:|
K:Am
|:A3B c2A2 d4 B2^G2|A3B c2d2 e3f e2c2|f3e d2c2 B2d2 B2^G2|A3B c2A2 d3e1/2f1/2 e4:|
c3d e2f2 g3a g2e2|ge3 ge3 d2g2 B2G2|c3d e2f2 g3a g2f2|e4 d4 c6 d2|
ec3 A2e2 fd3 c3B|ec3 B2A2 ^G6 E2|A3B c2d2 ea3 f2ed|c4 B4 A4 ed^cB|
K:A
|:A3A c3A d4 B3G|A3A c3A e4 c3A|e4 c3A d4 B3G|A3A c3A d3B e4:|
|:A3A c3e =g4 B3=G|A3A c3e a3b a2f2|=g3a g3e d2g2 B2=G2|A3A c3A d2B2 e4:|
